common/resources/fonts/svg/gte.svg

<?xml version="1.0" encoding="UTF-8" standalone="no"?>
<svg width="1024px" height="1024px" viewBox="0 0 1024 1024" version="1.1" xmlns="http://www.w3.org/2000/svg" xmlns:xlink="http://www.w3.org/1999/xlink">
    <!-- Generator: Sketch 40.1 (33804) - http://www.bohemiancoding.com/sketch -->
    <title>gte</title>
    <desc>Created with Sketch.</desc>
    <defs></defs>
    <g id="Page-1" stroke="none" stroke-width="1" fill="none" fill-rule="evenodd">
        <g id="gte" fill="#221F20">
            <path d="M807.659973,864.995169 L216,864.995169 L216,803.586665 L807.659973,803.586665 L807.659973,864.995169 Z M258.094619,148 L787.782303,403.342044 L787.782303,461.035334 L258.094619,716.377377 L258.094619,642.659758 L703.593532,433.256758 L703.593532,431.120619 L258.094619,221.71762 L258.094619,148 Z" id="Combined-Shape"></path>
        </g>
    </g>
</svg>

<svg width="1024" height="1024" viewBox="0 0 1024 1024">
    <path d="M807.66 864.995H216v-61.408h591.66v61.408zM258.095 148l529.687 255.342v57.693L258.095 716.377V642.66l445.499-209.403v-2.136l-445.5-209.403V148z" fill="#221F20" fill-rule="evenodd"/>
</svg>
